svg/color/hypeevm.svg

<?xml version="1.0" encoding="UTF-8"?>
<svg xmlns="http://www.w3.org/2000/svg" xmlns:xlink="http://www.w3.org/1999/xlink" width="32px" height="32px" viewBox="0 0 32 32" version="1.1">
<g id="surface1">
<path style=" stroke:none;fill-rule:nonzero;fill:rgb(2.745098%,15.294118%,13.725491%);fill-opacity:1;" d="M 19.839844 0.320312 C 19.972656 0.351562 20.105469 0.386719 20.242188 0.421875 C 21.730469 0.832031 23.164062 1.433594 24.480469 2.238281 C 24.480469 2.34375 24.480469 2.453125 24.480469 2.558594 C 24.574219 2.578125 24.667969 2.597656 24.761719 2.617188 C 25.144531 2.726562 25.398438 2.878906 25.71875 3.109375 C 25.816406 3.179688 25.917969 3.25 26.015625 3.320312 C 26.089844 3.386719 26.164062 3.453125 26.238281 3.519531 C 26.238281 3.625 26.238281 3.730469 26.238281 3.839844 C 26.398438 3.839844 26.558594 3.839844 26.71875 3.839844 C 26.9375 4.101562 27.152344 4.371094 27.359375 4.640625 C 27.542969 4.773438 27.542969 4.773438 27.726562 4.910156 C 28.273438 5.375 28.632812 5.894531 29.03125 6.488281 C 29.105469 6.605469 29.183594 6.71875 29.265625 6.835938 C 30.402344 8.542969 31.160156 10.179688 31.679688 12.160156 C 31.71875 12.308594 31.757812 12.460938 31.800781 12.617188 C 32.273438 14.855469 32.246094 17.621094 31.679688 19.839844 C 31.648438 19.972656 31.613281 20.105469 31.578125 20.242188 C 31.167969 21.730469 30.566406 23.164062 29.761719 24.480469 C 29.65625 24.480469 29.546875 24.480469 29.441406 24.480469 C 29.421875 24.574219 29.402344 24.667969 29.382812 24.761719 C 29.273438 25.144531 29.121094 25.398438 28.890625 25.71875 C 28.820312 25.816406 28.75 25.917969 28.679688 26.015625 C 28.613281 26.089844 28.546875 26.164062 28.480469 26.238281 C 28.375 26.238281 28.269531 26.238281 28.160156 26.238281 C 28.160156 26.398438 28.160156 26.558594 28.160156 26.71875 C 27.898438 26.9375 27.628906 27.152344 27.359375 27.359375 C 27.269531 27.480469 27.179688 27.601562 27.089844 27.726562 C 26.625 28.273438 26.105469 28.632812 25.511719 29.03125 C 25.394531 29.105469 25.28125 29.183594 25.164062 29.265625 C 23.457031 30.402344 21.820312 31.160156 19.839844 31.679688 C 19.691406 31.71875 19.539062 31.757812 19.382812 31.800781 C 17.144531 32.273438 14.378906 32.246094 12.160156 31.679688 C 12.027344 31.648438 11.894531 31.613281 11.757812 31.578125 C 10.269531 31.167969 8.835938 30.566406 7.519531 29.761719 C 7.519531 29.65625 7.519531 29.546875 7.519531 29.441406 C 7.425781 29.421875 7.332031 29.402344 7.238281 29.382812 C 6.855469 29.273438 6.601562 29.121094 6.28125 28.890625 C 6.183594 28.820312 6.082031 28.75 5.984375 28.679688 C 5.871094 28.582031 5.871094 28.582031 5.761719 28.480469 C 5.761719 28.375 5.761719 28.269531 5.761719 28.160156 C 5.601562 28.160156 5.441406 28.160156 5.28125 28.160156 C 5.0625 27.898438 4.847656 27.628906 4.640625 27.359375 C 4.519531 27.269531 4.398438 27.179688 4.273438 27.089844 C 3.726562 26.625 3.367188 26.105469 2.96875 25.511719 C 2.894531 25.394531 2.816406 25.28125 2.734375 25.164062 C 1.597656 23.457031 0.839844 21.820312 0.320312 19.839844 C 0.28125 19.691406 0.242188 19.539062 0.199219 19.382812 C -0.273438 17.144531 -0.246094 14.378906 0.320312 12.160156 C 0.351562 12.027344 0.386719 11.894531 0.421875 11.757812 C 0.832031 10.269531 1.433594 8.835938 2.238281 7.519531 C 2.34375 7.519531 2.453125 7.519531 2.558594 7.519531 C 2.578125 7.425781 2.597656 7.332031 2.617188 7.238281 C 2.726562 6.855469 2.878906 6.601562 3.109375 6.28125 C 3.214844 6.132812 3.214844 6.132812 3.320312 5.984375 C 3.386719 5.910156 3.453125 5.835938 3.519531 5.761719 C 3.625 5.761719 3.730469 5.761719 3.839844 5.761719 C 3.839844 5.601562 3.839844 5.441406 3.839844 5.28125 C 4.101562 5.0625 4.371094 4.847656 4.640625 4.640625 C 4.773438 4.457031 4.773438 4.457031 4.910156 4.273438 C 5.375 3.726562 5.894531 3.367188 6.488281 2.96875 C 6.605469 2.894531 6.71875 2.816406 6.835938 2.734375 C 8.542969 1.597656 10.179688 0.839844 12.160156 0.320312 C 12.308594 0.28125 12.460938 0.242188 12.617188 0.199219 C 14.855469 -0.273438 17.621094 -0.246094 19.839844 0.320312 Z M 19.839844 0.320312 "/>
<path style=" stroke:none;fill-rule:nonzero;fill:rgb(58.823532%,98.039216%,88.627452%);fill-opacity:1;" d="M 24 8 C 24 8.105469 24 8.210938 24 8.320312 C 24.089844 8.355469 24.179688 8.394531 24.269531 8.429688 C 24.746094 8.699219 25.074219 9.035156 25.441406 9.441406 C 25.441406 9.546875 25.441406 9.652344 25.441406 9.761719 C 25.546875 9.761719 25.652344 9.761719 25.761719 9.761719 C 27.363281 13.128906 27.648438 16.554688 26.585938 20.132812 C 25.882812 22.054688 24.882812 23.359375 23.03125 24.230469 C 21.980469 24.429688 21 24.179688 20.109375 23.601562 C 19.976562 23.480469 19.976562 23.480469 19.839844 23.359375 C 19.839844 23.253906 19.839844 23.148438 19.839844 23.039062 C 19.601562 22.960938 19.601562 22.960938 19.359375 22.878906 C 19.074219 22.46875 19.074219 22.46875 18.78125 21.949219 C 18.683594 21.78125 18.585938 21.613281 18.484375 21.4375 C 18.285156 21.050781 18.15625 20.742188 18.078125 20.320312 C 17.972656 20.320312 17.867188 20.320312 17.761719 20.320312 C 17.121094 19.453125 17.121094 19.453125 17.121094 19.039062 C 16.882812 18.960938 16.882812 18.960938 16.640625 18.878906 C 16.640625 18.773438 16.640625 18.667969 16.640625 18.558594 C 16.480469 18.558594 16.324219 18.558594 16.160156 18.558594 C 16.105469 18.453125 16.054688 18.347656 16 18.238281 C 15.175781 17.855469 14.347656 17.65625 13.441406 17.761719 C 12.917969 17.988281 12.917969 17.988281 12.480469 18.238281 C 12.375 18.238281 12.269531 18.238281 12.160156 18.238281 C 12.160156 18.34375 12.160156 18.453125 12.160156 18.558594 C 11.992188 18.6875 11.992188 18.6875 11.820312 18.820312 C 11.230469 19.308594 10.832031 19.871094 10.390625 20.488281 C 9.335938 21.960938 9.335938 21.960938 8.800781 22.238281 C 8.050781 22.355469 7.308594 22.328125 6.589844 22.089844 C 5.167969 20.75 4.707031 19.09375 4.621094 17.207031 C 4.613281 16.804688 4.609375 16.402344 4.609375 16 C 4.609375 15.867188 4.605469 15.730469 4.605469 15.59375 C 4.601562 13.953125 4.902344 12.332031 6.089844 11.121094 C 6.714844 10.625 7.292969 10.609375 8.066406 10.660156 C 9.078125 10.808594 9.589844 11.308594 10.222656 12.0625 C 10.398438 12.320312 10.398438 12.320312 10.398438 12.640625 C 10.503906 12.640625 10.609375 12.640625 10.71875 12.640625 C 10.945312 12.875 10.945312 12.875 11.191406 13.179688 C 11.507812 13.574219 11.730469 13.792969 12.160156 14.078125 C 12.160156 14.1875 12.160156 14.292969 12.160156 14.398438 C 12.28125 14.421875 12.402344 14.445312 12.53125 14.46875 C 12.960938 14.558594 12.960938 14.558594 13.441406 14.71875 C 14.453125 14.789062 15.21875 14.605469 16.160156 14.238281 C 16.160156 14.132812 16.160156 14.027344 16.160156 13.921875 C 16.285156 13.820312 16.410156 13.722656 16.539062 13.621094 C 16.9375 13.296875 17.097656 13.105469 17.28125 12.640625 C 17.386719 12.640625 17.492188 12.640625 17.601562 12.640625 C 17.632812 12.5 17.632812 12.5 17.664062 12.355469 C 18.144531 10.574219 19.277344 8.714844 20.800781 7.671875 C 21.972656 7.304688 22.890625 7.570312 24 8 Z M 24 8 "/>
<path style=" stroke:none;fill-rule:nonzero;fill:rgb(5.490196%,21.960784%,19.607843%);fill-opacity:1;" d="M 19.839844 0.320312 C 19.972656 0.351562 20.105469 0.386719 20.242188 0.421875 C 21.730469 0.832031 23.164062 1.433594 24.480469 2.238281 C 24.480469 2.34375 24.480469 2.453125 24.480469 2.558594 C 24.574219 2.578125 24.667969 2.597656 24.761719 2.617188 C 25.144531 2.726562 25.398438 2.878906 25.71875 3.109375 C 25.816406 3.179688 25.917969 3.25 26.015625 3.320312 C 26.089844 3.386719 26.164062 3.453125 26.238281 3.519531 C 26.238281 3.625 26.238281 3.730469 26.238281 3.839844 C 26.398438 3.839844 26.558594 3.839844 26.71875 3.839844 C 26.9375 4.101562 27.152344 4.371094 27.359375 4.640625 C 27.542969 4.773438 27.542969 4.773438 27.726562 4.910156 C 28.273438 5.375 28.632812 5.894531 29.03125 6.488281 C 29.105469 6.605469 29.183594 6.71875 29.265625 6.835938 C 30.402344 8.542969 31.160156 10.179688 31.679688 12.160156 C 31.71875 12.308594 31.757812 12.460938 31.800781 12.617188 C 32.273438 14.855469 32.246094 17.621094 31.679688 19.839844 C 31.648438 19.972656 31.613281 20.105469 31.578125 20.242188 C 31.167969 21.730469 30.566406 23.164062 29.761719 24.480469 C 29.65625 24.480469 29.546875 24.480469 29.441406 24.480469 C 29.421875 24.574219 29.402344 24.667969 29.382812 24.761719 C 29.273438 25.144531 29.121094 25.398438 28.890625 25.71875 C 28.820312 25.816406 28.75 25.917969 28.679688 26.015625 C 28.613281 26.089844 28.546875 26.164062 28.480469 26.238281 C 28.375 26.238281 28.269531 26.238281 28.160156 26.238281 C 28.160156 26.398438 28.160156 26.558594 28.160156 26.71875 C 27.898438 26.9375 27.628906 27.152344 27.359375 27.359375 C 27.269531 27.480469 27.179688 27.601562 27.089844 27.726562 C 26.625 28.273438 26.105469 28.632812 25.511719 29.03125 C 25.394531 29.105469 25.28125 29.183594 25.164062 29.265625 C 23.457031 30.402344 21.820312 31.160156 19.839844 31.679688 C 19.691406 31.71875 19.539062 31.757812 19.382812 31.800781 C 17.144531 32.273438 14.378906 32.246094 12.160156 31.679688 C 12.027344 31.648438 11.894531 31.613281 11.757812 31.578125 C 10.269531 31.167969 8.835938 30.566406 7.519531 29.761719 C 7.519531 29.65625 7.519531 29.546875 7.519531 29.441406 C 7.425781 29.421875 7.332031 29.402344 7.238281 29.382812 C 6.855469 29.273438 6.601562 29.121094 6.28125 28.890625 C 6.183594 28.820312 6.082031 28.75 5.984375 28.679688 C 5.871094 28.582031 5.871094 28.582031 5.761719 28.480469 C 5.761719 28.375 5.761719 28.269531 5.761719 28.160156 C 5.601562 28.160156 5.441406 28.160156 5.28125 28.160156 C 5.0625 27.898438 4.847656 27.628906 4.640625 27.359375 C 4.519531 27.269531 4.398438 27.179688 4.273438 27.089844 C 3.726562 26.625 3.367188 26.105469 2.96875 25.511719 C 2.894531 25.394531 2.816406 25.28125 2.734375 25.164062 C 1.597656 23.457031 0.839844 21.820312 0.320312 19.839844 C 0.28125 19.691406 0.242188 19.539062 0.199219 19.382812 C -0.273438 17.144531 -0.246094 14.378906 0.320312 12.160156 C 0.351562 12.027344 0.386719 11.894531 0.421875 11.757812 C 0.832031 10.269531 1.433594 8.835938 2.238281 7.519531 C 2.34375 7.519531 2.453125 7.519531 2.558594 7.519531 C 2.578125 7.425781 2.597656 7.332031 2.617188 7.238281 C 2.726562 6.855469 2.878906 6.601562 3.109375 6.28125 C 3.214844 6.132812 3.214844 6.132812 3.320312 5.984375 C 3.386719 5.910156 3.453125 5.835938 3.519531 5.761719 C 3.625 5.761719 3.730469 5.761719 3.839844 5.761719 C 3.839844 5.601562 3.839844 5.441406 3.839844 5.28125 C 4.101562 5.0625 4.371094 4.847656 4.640625 4.640625 C 4.773438 4.457031 4.773438 4.457031 4.910156 4.273438 C 5.375 3.726562 5.894531 3.367188 6.488281 2.96875 C 6.605469 2.894531 6.71875 2.816406 6.835938 2.734375 C 8.542969 1.597656 10.179688 0.839844 12.160156 0.320312 C 12.308594 0.28125 12.460938 0.242188 12.617188 0.199219 C 14.855469 -0.273438 17.621094 -0.246094 19.839844 0.320312 Z M 9.761719 1.761719 C 9.761719 1.867188 9.761719 1.972656 9.761719 2.078125 C 9.648438 2.097656 9.535156 2.113281 9.421875 2.128906 C 8.898438 2.253906 8.472656 2.46875 8 2.71875 C 8 2.824219 8 2.929688 8 3.039062 C 7.910156 3.054688 7.820312 3.070312 7.730469 3.085938 C 6.671875 3.410156 5.757812 4.246094 5.121094 5.121094 C 4.996094 5.214844 4.875 5.308594 4.746094 5.40625 C 4.289062 5.785156 3.976562 6.171875 3.628906 6.648438 C 3.519531 6.800781 3.40625 6.953125 3.292969 7.109375 C 3 7.507812 3 7.507812 3.039062 8 C 2.933594 8 2.828125 8 2.71875 8 C 1.378906 10.617188 0.539062 12.914062 0.550781 15.921875 C 0.550781 16.03125 0.550781 16.144531 0.550781 16.257812 C 0.554688 18.746094 1.097656 20.839844 2.238281 23.039062 C 2.398438 23.359375 2.558594 23.679688 2.71875 24 C 2.824219 24 2.929688 24 3.039062 24 C 3.054688 24.089844 3.070312 24.179688 3.085938 24.269531 C 3.410156 25.328125 4.246094 26.242188 5.121094 26.878906 C 5.214844 27.003906 5.308594 27.125 5.40625 27.253906 C 5.785156 27.710938 6.171875 28.023438 6.648438 28.371094 C 6.878906 28.539062 6.878906 28.539062 7.109375 28.707031 C 7.507812 29 7.507812 29 8 28.960938 C 8 29.066406 8 29.171875 8 29.28125 C 10.617188 30.621094 12.914062 31.460938 15.921875 31.449219 C 16.085938 31.449219 16.085938 31.449219 16.257812 31.449219 C 18.746094 31.445312 20.839844 30.902344 23.039062 29.761719 C 23.359375 29.601562 23.679688 29.441406 24 29.28125 C 24 29.175781 24 29.070312 24 28.960938 C 24.089844 28.945312 24.179688 28.929688 24.269531 28.914062 C 25.328125 28.589844 26.242188 27.753906 26.878906 26.878906 C 27.003906 26.785156 27.125 26.691406 27.253906 26.59375 C 27.710938 26.214844 28.023438 25.828125 28.371094 25.351562 C 28.480469 25.199219 28.59375 25.046875 28.707031 24.890625 C 29 24.492188 29 24.492188 28.960938 24 C 29.066406 24 29.171875 24 29.28125 24 C 30.601562 21.421875 31.453125 19.160156 31.429688 16.199219 C 31.429688 16.09375 31.429688 15.988281 31.429688 15.882812 C 31.421875 14.222656 31.269531 12.765625 30.71875 11.199219 C 30.671875 11.042969 30.621094 10.886719 30.570312 10.726562 C 30.464844 10.402344 30.355469 10.082031 30.238281 9.761719 C 30.132812 9.761719 30.027344 9.761719 29.921875 9.761719 C 29.902344 9.648438 29.886719 9.535156 29.871094 9.421875 C 29.746094 8.898438 29.53125 8.472656 29.28125 8 C 29.175781 8 29.070312 8 28.960938 8 C 28.945312 7.910156 28.929688 7.820312 28.914062 7.730469 C 28.589844 6.671875 27.753906 5.757812 26.878906 5.121094 C 26.785156 4.996094 26.691406 4.875 26.59375 4.746094 C 26.214844 4.289062 25.828125 3.976562 25.351562 3.628906 C 25.121094 3.460938 25.121094 3.460938 24.890625 3.292969 C 24.492188 3 24.492188 3 24 3.039062 C 24 2.933594 24 2.828125 24 2.71875 C 22.589844 1.96875 21.226562 1.378906 19.679688 0.960938 C 19.421875 0.878906 19.421875 0.878906 19.160156 0.796875 C 18.167969 0.539062 17.175781 0.554688 16.160156 0.550781 C 16.046875 0.550781 15.933594 0.546875 15.820312 0.546875 C 13.664062 0.539062 11.769531 0.957031 9.761719 1.761719 Z M 9.761719 1.761719 "/>
</g>
</svg>

<svg xmlns="http://www.w3.org/2000/svg" width="32" height="32" viewBox="0 0 32 32"><path d="M19.84.32q.198.049.402.102a16.6 16.6 0 0 1 4.238 1.816v.32l.282.06c.383.109.636.26.957.491l.297.211.222.2v.32h.48q.33.395.641.8c.184.133.184.133.368.27.546.465.906.985 1.304 1.578.074.117.153.23.235.348 1.136 1.707 1.894 3.344 2.414 5.324l.12.457c.473 2.238.446 5.004-.12 7.223q-.049.198-.102.402a16.6 16.6 0 0 1-1.816 4.238h-.32l-.06.282c-.109.383-.26.636-.491.957l-.211.297-.2.222h-.32v.48q-.395.33-.8.641-.135.181-.27.368c-.465.546-.985.906-1.578 1.304-.117.074-.23.153-.348.235-1.707 1.136-3.344 1.894-5.324 2.414l-.457.12c-2.238.473-5.004.446-7.223-.12q-.198-.049-.402-.102a16.6 16.6 0 0 1-4.238-1.816v-.32l-.282-.06c-.383-.109-.636-.26-.957-.491l-.297-.211c-.113-.098-.113-.098-.222-.2v-.32h-.48a25 25 0 0 1-.641-.8q-.181-.135-.368-.27c-.546-.465-.906-.985-1.304-1.578a9 9 0 0 0-.235-.348C1.598 23.457.84 21.82.32 19.84l-.12-.457c-.473-2.238-.446-5.004.12-7.223q.049-.198.102-.402A16.6 16.6 0 0 1 2.238 7.52h.32l.06-.282c.109-.383.26-.636.491-.957l.211-.297.2-.222h.32v-.48q.395-.33.8-.641c.133-.184.133-.184.27-.368.465-.546.985-.906 1.578-1.304.117-.074.23-.153.348-.235C8.543 1.598 10.18.84 12.16.32l.457-.12c2.238-.473 5.004-.446 7.223.12m0 0" style="stroke:none;fill-rule:nonzero;fill:#072723;fill-opacity:1"/><path d="M24 8v.32c.09.035.18.075.27.11.476.27.804.605 1.171 1.011v.32h.32c1.602 3.368 1.887 6.794.825 10.372-.703 1.922-1.703 3.226-3.555 4.097-1.05.2-2.031-.05-2.922-.628-.132-.122-.132-.122-.27-.243v-.32l-.48-.16c-.285-.41-.285-.41-.578-.93l-.297-.512c-.199-.386-.328-.695-.406-1.117h-.316c-.64-.867-.64-.867-.64-1.28l-.481-.161v-.32h-.48c-.056-.106-.106-.211-.161-.32-.824-.384-1.652-.583-2.559-.477-.523.226-.523.226-.96.476h-.32v.32l-.34.262c-.59.489-.989 1.051-1.43 1.668-1.055 1.473-1.055 1.473-1.59 1.75-.75.117-1.492.09-2.211-.148-1.422-1.34-1.883-2.996-1.969-4.883A62 62 0 0 1 4.61 16l-.004-.406c-.003-1.64.297-3.262 1.485-4.473.625-.496 1.203-.512 1.976-.46 1.012.148 1.524.648 2.157 1.402.175.257.175.257.175.578h.32c.227.234.227.234.473.539.317.394.54.613.97.898v.32q.178.036.37.07c.43.09.43.09.91.25 1.012.071 1.778-.113 2.72-.48v-.316q.186-.151.378-.3c.398-.325.559-.517.742-.981h.32l.063-.286c.48-1.78 1.613-3.64 3.137-4.683C21.973 7.305 22.89 7.57 24 8m0 0" style="stroke:none;fill-rule:nonzero;fill:#96fae2;fill-opacity:1"/><path d="M19.84.32q.198.049.402.102a16.6 16.6 0 0 1 4.238 1.816v.32l.282.06c.383.109.636.26.957.491l.297.211.222.2v.32h.48q.33.395.641.8c.184.133.184.133.368.27.546.465.906.985 1.304 1.578.074.117.153.23.235.348 1.136 1.707 1.894 3.344 2.414 5.324l.12.457c.473 2.238.446 5.004-.12 7.223q-.049.198-.102.402a16.6 16.6 0 0 1-1.816 4.238h-.32l-.06.282c-.109.383-.26.636-.491.957l-.211.297-.2.222h-.32v.48q-.395.33-.8.641-.135.181-.27.368c-.465.546-.985.906-1.578 1.304-.117.074-.23.153-.348.235-1.707 1.136-3.344 1.894-5.324 2.414l-.457.12c-2.238.473-5.004.446-7.223-.12q-.198-.049-.402-.102a16.6 16.6 0 0 1-4.238-1.816v-.32l-.282-.06c-.383-.109-.636-.26-.957-.491l-.297-.211c-.113-.098-.113-.098-.222-.2v-.32h-.48a25 25 0 0 1-.641-.8q-.181-.135-.368-.27c-.546-.465-.906-.985-1.304-1.578a9 9 0 0 0-.235-.348C1.598 23.457.84 21.82.32 19.84l-.12-.457c-.473-2.238-.446-5.004.12-7.223q.049-.198.102-.402A16.6 16.6 0 0 1 2.238 7.52h.32l.06-.282c.109-.383.26-.636.491-.957l.211-.297.2-.222h.32v-.48q.395-.33.8-.641c.133-.184.133-.184.27-.368.465-.546.985-.906 1.578-1.304.117-.074.23-.153.348-.235C8.543 1.598 10.18.84 12.16.32l.457-.12c2.238-.473 5.004-.446 7.223.12M9.762 1.762v.316q-.17.029-.34.05c-.524.126-.95.34-1.422.59v.321l-.27.047c-1.058.324-1.972 1.16-2.609 2.035l-.375.285c-.457.38-.77.766-1.117 1.242l-.336.461C3 7.508 3 7.508 3.039 8h-.32C1.379 10.617.539 12.914.55 15.922v.336c.004 2.488.547 4.582 1.687 6.781l.48.961h.321l.047.27c.324 1.058 1.16 1.972 2.035 2.609l.285.375c.38.457.766.77 1.242 1.117l.461.336c.399.293.399.293.891.254v.32c2.617 1.34 4.914 2.18 7.922 2.168h.336c2.488-.004 4.582-.547 6.781-1.687l.961-.48v-.321l.27-.047c1.058-.324 1.972-1.16 2.609-2.035l.375-.285c.457-.38.77-.766 1.117-1.242l.336-.461c.293-.399.293-.399.254-.891h.32c1.32-2.578 2.172-4.84 2.149-7.8v-.317c-.008-1.66-.16-3.117-.711-4.684q-.072-.233-.149-.472a28 28 0 0 0-.332-.965h-.316q-.029-.17-.05-.34c-.126-.524-.34-.95-.59-1.422h-.321l-.047-.27c-.324-1.058-1.16-1.972-2.035-2.609l-.285-.375c-.38-.457-.766-.77-1.242-1.117l-.461-.336C24.492 3 24.492 3 24 3.039v-.32c-1.41-.75-2.773-1.34-4.32-1.758l-.52-.164c-.992-.258-1.984-.242-3-.246-.113 0-.226-.004-.34-.004-2.156-.008-4.05.41-6.058 1.215m0 0" style="stroke:none;fill-rule:nonzero;fill:#0e3832;fill-opacity:1"/></svg>
